X: 151
T: Açıldı Gonce-i
C: Kömürcüzâde Hâfız Mehmed Ef.
O: Turkey
F: http://compmusic.upf.edu/node/140
N: huseyni--agirsemai--aksaksemai--acildi_gonce-i--komurcuzade_hafiz_mehmet_efendi
N: makam= huseyni
N: form= agirsemai
N: usul= aksaksemai = 10/8
M: 10/8
L: 1/16
K: C _2/4B ^3/4f  
Q: 1/4=120
%%MIDI tuningsystem comma53
A4 G2A4ed ^cde6  | e4 d2e2 g2^f2 e2d6  | \
w:   |   | 
g4 g2g3^fa3gag =f4  | 
w:   | 
a3g ag=f3ee3ded c4  | g2=f2 e2d2 c2c2 _1/4B2d4cB  | 
w:   |   | 
A4 G2A4c2 d2e6  | g2=f2 e2d2 c2c2 _1/4B2A4f2  | \
w:   |   | 
e4 d2d2 c2d2 e2d2 c2d2  | 
w:   | 
_1/4B3c c2e3dd2 cBA2 G2e2  | edc_1/4B A6^F2 G2A4z2  | \
w:   |   | 
A4 G2A4ed ^cde6  | 
w:   | 
e4 d2e2 g2^f2 e2d6  | g4 g2g3^fa3gag =f4  | \
w:   |   | 
a3g ag=f3ee3ded c4  | 
w:   | 
g2=f2 e2d2 c2c2 _1/4B2d4cB  | A4 G2A4c2 d2e6  | \
w:   |   | 
g2=f2 e2d2 c2c2 _1/4B2A4f2  | 
w:   | 
e4 d2d2 c2d2 e2d2 c2d2  | _1/4B3c c2e3dd2 cBA2 G2e2  | \
w:   |   | 
edc_1/4B A6e2 ^f2g4z2  | 
w:   | 
g4 g2e2 ^f2g2 a2g6  | a4 g2ac' _1/4baag g^fg4z2  | \
w:   |   | 
c'4 c'2c'3_1/4bb2 baba g4  | 
w:   | 
g4 ^f2g3f=ba gfe6  | g2^f2 e2d4eg fee4z2  | \
w:   |   | 
A4 G2A4c2 d2e6  | 
w:   | 
g2=f2 e2d2 c2c2 _1/4B2A4f2  | e4 d2d2 c2d2 e2d2 c2d2  | \
w:   |   | 
_1/4B3c d2e3de2 d2cB A2G2  | 
w:   | 
e2ed c_1/4BA2 A4 c2d2 e4  | z2A4G2 A4 ed^cd e6e4d2 e2g2 ^f2e2 d6g4g2 g3f a3g ag=f4a3gag f3e e3d ed=c4g2 f2e2 d2c2 c2_1/4B2 d4  | 
w:   |   | 
c_1/4BA4G2 A4 c2d2 e6g2 =f2e2 d2c2 c2B2 A4  | \
w:   | 
=f2e4d2 d2c2 d2e2 d2c2  | 
w:   | 
d2_1/4B3cc2 e3d d2cB A2G2  | e2ed c_1/4BA6 ^F2G2 A4  | \
w:   |   | 
z2A4G2 A4 ed^cd e6e4d2 e2g2 ^f2e2 d6g4g2 g3f a3g ag=f4a3gag f3e e3d ed=c4g2 f2e2 d2c2 c2_1/4B2 d4  | 
w:   | 
c_1/4BA4G2 A4 c2d2 e6g2 =f2e2 d2c2 c2B2 A4  | \
w:   | 
=f2e4d2 d2c2 d2e2 d2c2  | 
w:   | 
d2_1/4B3cc2 e3d d2cB A2G2  | e2ed c_1/4BA6 e2^f2 g4  | \
w:   |   | 
z2g4g2 e2^f2 g2a2 g6a4g2 ac'_1/4ba aggf g4  | 
w:   | 
z2c'4c'2 c'3_1/4b b2ba bag4g4^f2 g3f =bagf e6g2 f2e2 d4 egfe e4  | 
w:   | 
z2A4G2 A4 c2d2 e6g2 =f2e2 d2c2 c2_1/4B2 A4  | \
w:   | 
=f2e4d2 d2c2 d2e2 d2c2  | 
w:   | 
d2_1/4B3cd2 e3d e2d2 cBA2  | G2e2 edc_1/4B A2A4c2 d2e4z2 |
w:   |   | 


